!!!COM: Robert Schumann
!!!CNT: Deutsch
!!!TXO: Deutsch
!!!OTL: Was will die einsame Tra2ne
!!!LYR: Heine
!!!OPR: Myrten
!!!OPS: OP. 25
!!!ONM: No. 21
!!!ENC: Ben Fuhrman
!!!YOR: Schumann Lieder - Max Friedlaender, ed.,
!!!YOR: New York: C. F. Peters, Vol. 1
!!!ODT: 1840/
!!NB: Vocal melody and text only encoded.
!!NB: First instance of melodic material only encoded.
**kern	**silbe
*clefG2	*
*k[f#]	*
*M6/8	*
!!created: 5/15/06 9:47
!!proofed and posted: 5/15/06 9:48
!!edit time: 27 minutes
=1	=1
4r	.
8r	.
8r	.
8r	.
{8b	{Was
=2	=2
4a	will
8e	die
8.f#	ein-
16e	-sa
8d	-me
=3	=3
8a	Tra2-
8g}	-ne?}
8r	.
8r	.
8r	.
{8g	{sie
=4	=4
4f#	tru2bt
8b	mir
(8cc#	ja
qdd	|
qcc#	|
8b)	|
8a#	den
=5	=5
4b}	Blick.}
8r	.
8r	.
8r	.
{8b	{Sie
=6	=6
4a	blieb
8e	aus
(8.f#	al-
16e)	|
8d	-ten
=7	=7
8a	Zei-
8g}	-ten}
8r	.
8r	.
8r	.
{8g	{in
=8	=8
4f#	mei-
8b	-nem
8.a	Au-
16e	-ge
8f#	zu-
=9	=9
4d}	ru2ck.}
8r	.
8r	.
8r	.
{8d	{Sie
=10	=10
8.d	hat-
16e	-te
8f#	viel
8f#	leuch-
8g	-ten-
8a	-de
=11	=11
4.a	Schwe-
8d}	-stern,}
8r	.
{8d	{die
=12	=12
8.d	al-
16e	-le
8f#	zer-
(8f#	-flos-
8g)	|
8a	-sen
=13	=13
4a}	sind,}
8r	.
8r	.
8r	.
{8g	{mit
=14	=14
(8.g	mei-
16a)	|
8b	-nen
8b	Qua-
8cc	-len
8dd	und
=15	=15
4.dd	Freu-
4cc	-den
8b	zer-
=16	=16
8a.	-flos-
16a	-sen
8a	in
8cc	Nacht
8r	.
8a	und
=17	=17
8f#}	Wind.}
8r	.
8r	.
8r	.
8r	.
{8d	{Wie
=18	=18
8.d	Ne-
16e	-bel
8f#	sind
(8f#	auch
8g)	|
8a	zer-
=19	=19
4.a	-flos
8d}	-sen}
8r	.
{8d	{die
=20	=20
(8.d	blau-
16e)	|
8f#	-en
(8f#	Ster-
8g)	|
8a	-ne-
=21	=21
4a}	lein,}
8r	.
8r	.
8r	.
{8g	{die
=22	=22
8g	mir
8a	je-
8b	-ne
8b	Freu-
8cc	-den
8dd	und
=23	=23
4.ee	Qua-
4cc	-len
8b	ge-
=24	=24
8.a	-la2-
16a	-chelt
8a	ins
8cc	Herz
8r	.
8a	hin-
=25	=25
4f#}	-ein}
8r	.
8r	.
8r	.
{8b	{Ach,
=26	=26
4a	mei-
8e	-ne
(8.f#	Lie
16e)	|
8d	-be
=27	=27
8a	sel-
8g}	-ber}
8r	.
8r	.
8r	.
{8g	{zer-
=28	=28
4f#	-floss
8b	wie
(8cc#	el
qdd	|
qcc#	|
8b)	|
8cc#	-tel
=29	=29
4.dd}	Hauch!}
8r	.
8r	.
{8b	{Du
=30	=30
4a	al-
8e	-te,
8.f#	ein
16e#	-sa-
8f#	-me
=31	=31
4a	Tra2-
8g}	-ne,}
8r	.
8r	.
{8b	{zer-
=32	=32
8.a	-flie-
16a	-sse
8g	jetz-
(8f#	-un-
8b)	|
8a	-der
=33	=33
4g}	auch!}
8r	.
4r	.
8r	.
==	==
*-	*-
